assets/icons/search.svg

<svg width="12" height="12" viewBox="0 0 12 12" fill="none" xmlns="http://www.w3.org/2000/svg">
<path fill-rule="evenodd" clip-rule="evenodd" d="M11.6856 10.4793L11.6874 10.4828C11.8424 10.6705 11.8579 10.9892 11.7201 11.196L11.7149 11.2029L11.7097 11.208C11.6202 11.2993 11.4979 11.3441 11.3445 11.3441C11.1929 11.3441 11.0689 11.2976 10.9793 11.208L8.56578 8.79622C7.64068 9.52148 6.56226 9.90392 5.43904 9.90392C4.77752 9.90392 4.13322 9.773 3.5251 9.51287C2.93765 9.26307 2.4105 8.90475 1.95398 8.44995C1.49918 7.99515 1.14085 7.46627 0.891058 6.87883C0.63265 6.27071 0.5 5.62641 0.5 4.96488C0.5 4.30336 0.630927 3.65734 0.891058 3.04577C1.14085 2.45488 1.49918 1.92428 1.95398 1.46604C2.40878 1.00779 2.93765 0.646021 3.52338 0.394503C4.13322 0.13265 4.77752 0 5.43904 0C6.10057 0 6.74486 0.130927 7.35471 0.391058C7.94216 0.640852 8.46931 0.999178 8.92583 1.45398C9.38235 1.90878 9.73895 2.43765 9.98875 3.0251C10.2472 3.63322 10.3798 4.27752 10.3798 4.93904C10.3798 6.10705 9.98703 7.21303 9.27382 8.0675L11.6856 10.4793ZM1.50435 4.96487C1.50435 7.13378 3.26841 8.89957 5.43904 8.89957C7.60795 8.89957 9.37374 7.1355 9.37374 4.96487C9.37374 2.79424 7.60795 1.03018 5.43904 1.03018C3.27014 1.03018 1.50435 2.79597 1.50435 4.96487Z" fill="white"/>
</svg>

<svg xmlns="http://www.w3.org/2000/svg" width="12" height="12" fill="none" data-c="1"><path fill="#fff" fill-rule="evenodd" d="m11.686 10.48.001.003c.155.188.17.506.033.713l-.005.007-.005.005a.49.49 0 0 1-.366.136.5.5 0 0 1-.365-.136L8.566 8.796c-.925.725-2.004 1.108-3.127 1.108a4.8 4.8 0 0 1-1.914-.391A5 5 0 0 1 1.954 8.45 5 5 0 0 1 .891 6.879a4.877 4.877 0 0 1 0-3.833c.25-.591.608-1.122 1.063-1.58s.984-.82 1.57-1.071A4.854 4.854 0 0 1 7.354.392c.587.249 1.114.607 1.57 1.062a4.93 4.93 0 0 1 1.455 3.485c0 1.168-.393 2.274-1.106 3.129zM1.504 4.964A3.94 3.94 0 0 0 5.44 8.9a3.94 3.94 0 0 0 3.935-3.935A3.94 3.94 0 0 0 5.439 1.03a3.94 3.94 0 0 0-3.935 3.935" clip-rule="evenodd"/></svg>
